icons/Color/scalable/zoom-in.svg

<svg height="16" viewBox="0 0 16 16" width="16" xmlns="http://www.w3.org/2000/svg"><g stroke="#555753" stroke-linecap="round"><rect fill="#eeeeec" height="14.99999925463" rx="3.20737584063" ry="3.20278947052" stroke-width=".9999999247" width="14.99999925463" x=".49999978557" y=".50000097688"/><path d="m6.4999995 3.515625v2.9531278h-2.9999995v3.0000003h2.9999995v2.9692469h3v-2.9692469h3.0000005v-3.0000003l-3.0000005.0152472v-2.968375z"/></g></svg>

<?xml version="1.0" encoding="UTF-8" standalone="no"?>
<!-- Created with Inkscape (http://www.inkscape.org/) -->

<svg
   xmlns:dc="http://purl.org/dc/elements/1.1/"
   xmlns:cc="http://creativecommons.org/ns#"
   xmlns:rdf="http://www.w3.org/1999/02/22-rdf-syntax-ns#"
   xmlns:svg="http://www.w3.org/2000/svg"
   xmlns="http://www.w3.org/2000/svg"
   xmlns:sodipodi="http://sodipodi.sourceforge.net/DTD/sodipodi-0.dtd"
   xmlns:inkscape="http://www.inkscape.org/namespaces/inkscape"
   id="svg7384"
   height="16"
   width="16"
   version="1.1"
   sodipodi:docname="gimp-zoom-in.svg"
   viewBox="0 0 16 16"
   inkscape:version="0.92pre1 unknown">
  <defs
     id="defs9" />
  <sodipodi:namedview
     pagecolor="#ffffff"
     bordercolor="#666666"
     borderopacity="1"
     objecttolerance="10"
     gridtolerance="10"
     guidetolerance="10"
     inkscape:pageopacity="0"
     inkscape:pageshadow="2"
     inkscape:window-width="1920"
     inkscape:window-height="1016"
     id="namedview7"
     showgrid="true"
     inkscape:zoom="43.1875"
     inkscape:cx="8.8049846"
     inkscape:cy="7.0796136"
     inkscape:window-x="0"
     inkscape:window-y="27"
     inkscape:window-maximized="1"
     inkscape:current-layer="svg7384">
    <inkscape:grid
       type="xygrid"
       id="grid4231" />
  </sodipodi:namedview>
  <metadata
     id="metadata90">
    <rdf:RDF>
      <cc:Work
         rdf:about="">
        <dc:format>image/svg+xml</dc:format>
        <dc:type
           rdf:resource="http://purl.org/dc/dcmitype/StillImage" />
        <dc:title>Gnome Symbolic Icon Theme</dc:title>
      </cc:Work>
    </rdf:RDF>
  </metadata>
  <g
     id="g4235">
    <g
       clip-path="url(#clipPath6034)"
       style="display:inline;enable-background:new"
       inkscape:label="Layer 1"
       id="g9057"
       transform="matrix(-0.07682362,0,0,0.07682362,18.70247,-1.0767273)">
      <rect
         transform="scale(-1,1)"
         ry="41.690166"
         rx="41.749866"
         y="20.524"
         x="-236.93846"
         height="195.25244"
         width="195.25244"
         id="rect10672-9-0-9"
         style="color:#000000;display:inline;overflow:visible;visibility:visible;fill:#eeeeec;fill-opacity:1;stroke:#555753;stroke-width:13.01682949;stroke-linecap:round;stroke-linejoin:miter;stroke-miterlimit:4;stroke-dasharray:none;stroke-dashoffset:0;stroke-opacity:1;marker:none;enable-background:new" />
    </g>
    <path
       inkscape:connector-curvature="0"
       sodipodi:nodetypes="ccccccccccccc"
       style="color:#000000;display:inline;overflow:visible;visibility:visible;fill:#000000;fill-opacity:1;stroke:#555753;stroke-width:1;stroke-linecap:round;stroke-linejoin:miter;stroke-miterlimit:4;stroke-dasharray:none;stroke-dashoffset:0;stroke-opacity:1;marker:none;enable-background:accumulate"
       id="rect2900-4-9"
       d="M 6.4999995,3.515625 V 6.4687528 H 3.5 V 9.4687531 H 6.4999995 V 12.438 h 3 V 9.4687531 H 12.5 V 6.4687528 L 9.4999995,6.484 V 3.515625 Z" />
  </g>
</svg>
